X: 13467
T: Florina's
R: reel
M: 4/4
K: Fmajor
|:DGGF GDBD|GBAG FCAB|CFFE FACF|Acag ^fdcA|
BGGF GDBD|GBAG F2 EF|DGGF GDag|1 ^fdcA G2 FG:|2 ^fdcA GABc||
|:dgg^f gGBd|g2 ag fdscB|AFcF CFAB|cdag ^fdcA|
dgg^f gGBd|g2 ag fdscB|AFcF CFag|1 ^fdcA GABc:|2 ^fdcA G4||

